images/feature-icon-6.svg

<svg width="45" height="43" viewBox="0 0 45 43" fill="none" xmlns="http://www.w3.org/2000/svg">
<path fill-rule="evenodd" clip-rule="evenodd" d="M11.9558 37.0507L12.651 38.279L12.652 38.2808C13.1728 39.2071 12.8426 40.389 11.9216 40.9093L9.62755 42.2095L9.62537 42.2107C8.69906 42.7315 7.51718 42.4013 6.99668 41.4799L0.250676 29.5597C-0.274808 28.6327 0.055343 27.4497 0.97748 26.929L3.2742 25.6287C4.19598 25.1081 5.37886 25.4351 5.90371 26.3568L5.90471 26.3585L6.47819 27.3718L12.5618 23.8495C14.3457 22.8179 16.1672 22.1388 18.1264 22.775C20.0604 23.4021 23.218 24.7533 26.4403 25.3355C26.4723 25.3414 26.5039 25.3493 26.5348 25.3593C28.1144 25.8707 29.0768 27.4665 28.6455 29.0705C28.5596 29.3903 28.4375 29.6807 28.282 29.9382C28.7099 29.8385 29.1265 29.6732 29.5348 29.4354L37.7146 24.6713C40.6254 22.9756 42.5638 23.1438 43.6622 23.8808C44.5958 24.5071 45.0266 25.5773 44.9987 26.6272C44.9706 27.6868 44.4685 28.7006 43.6375 29.2123L28.7946 38.3509C27.2544 39.3015 25.5673 39.5243 23.8194 39.058L13.3421 36.2501L11.9558 37.0507ZM11.3869 38.9927L4.64208 27.0747L4.64144 27.0735C4.51034 26.8454 4.21757 26.7631 3.98876 26.8922L1.69258 28.1921C1.46431 28.3211 1.38348 28.6146 1.51349 28.8439L8.26004 40.7649C8.38932 40.9938 8.68337 41.0746 8.91336 40.9456L11.2058 39.6464L11.2067 39.6458C11.4356 39.5165 11.5159 39.2227 11.3869 38.9927ZM11.2408 35.7873L12.8767 34.8426C13.0434 34.7463 13.2415 34.7203 13.4275 34.7701L24.1938 37.6556C25.5419 38.0151 26.8442 37.8489 28.0323 37.1157L42.8763 27.9763C43.2827 27.726 43.4985 27.225 43.541 26.7097C43.6063 25.9182 43.2318 25.0464 42.2527 24.8413C41.3726 24.6568 40.1319 24.9431 38.4452 25.9256L30.2657 30.6895C28.972 31.4434 27.6161 31.6512 26.1386 31.416L26.136 31.4156L25.1209 31.2504C25.1111 31.2488 25.1013 31.2471 25.0916 31.2451L25.0906 31.2448C23.2462 30.8662 21.5358 30.309 19.6377 29.7989C19.2508 29.6949 19.0211 29.2964 19.1251 28.9095C19.2291 28.5226 19.6275 28.293 20.0144 28.397C21.8731 28.8965 23.5485 29.4442 25.3531 29.8169C26.3186 29.9253 27.0218 29.5201 27.2435 28.6939C27.469 27.8557 26.9457 27.0404 26.1298 26.7545C22.8532 26.1542 19.6454 24.7935 17.6785 24.1557C16.1258 23.6516 14.7023 24.2886 13.2887 25.1061L7.1932 28.6352L11.2408 35.7873ZM3.70561 28.3716C4.22628 28.2941 4.70976 28.6537 4.78724 29.1742C4.86163 29.6949 4.50218 30.1815 3.9815 30.2559C3.46083 30.3334 2.97735 29.9707 2.89987 29.4501C2.82547 28.9295 3.18502 28.446 3.70561 28.3716ZM14.8707 20.1498L9.30293 20.149C4.18618 20.149 9.10148e-05 15.9629 2.88972e-07 10.8462C-0.00126987 5.73061 4.18482 1.54433 9.30166 1.54433H17.9204C18.1209 1.54433 18.3024 1.62563 18.4338 1.757C18.565 1.88837 18.6462 2.06982 18.6462 2.27014V6.62743C18.6462 6.82821 18.5648 7.00993 18.433 7.1413C18.3017 7.27303 18.1199 7.35451 17.9192 7.35451H9.30293C7.38127 7.35451 5.81017 8.9257 5.81017 10.8474C5.80908 12.7679 7.38136 14.3402 9.30293 14.3402H17.9192C18.32 14.3402 18.6449 14.665 18.645 15.0657L18.6462 19.4243C18.6463 19.6168 18.5698 19.8015 18.4338 19.9376C18.2976 20.0738 18.113 20.1503 17.9204 20.1503H14.8964C14.8877 20.1503 14.8792 20.1502 14.8707 20.1498ZM14.1706 2.99595H9.30166C4.98339 2.99595 1.45043 6.52872 1.45161 10.8459C1.45161 15.1643 4.98457 18.6974 9.30302 18.6974C9.30302 18.6974 11.944 18.6979 14.1703 18.6981L14.1695 15.7918H9.30293C6.58261 15.7918 4.35711 13.566 4.35856 10.8472C4.35865 8.12685 6.5827 5.90289 9.30293 5.90289H14.1706V2.99595ZM17.1944 2.99595H15.6222V5.90162H17.1936C17.1936 5.83312 17.1944 2.99595 17.1944 2.99595ZM17.1944 18.6987L17.1936 15.7918H15.6211L15.6219 18.6984C16.5465 18.6985 17.1944 18.6987 17.1944 18.6987ZM23.3369 10.0129L20.4225 9.99744C20.0219 9.99526 19.6984 9.66829 19.7006 9.26773C19.7027 8.86718 20.0296 8.54365 20.4302 8.54583L23.5462 8.56234C23.6366 8.14083 23.7515 7.72839 23.8892 7.32665H21.0406C20.64 7.32665 20.3148 7.0014 20.3148 6.60085C20.3148 6.20029 20.64 5.87504 21.0406 5.87504H24.5092C24.7279 5.45162 24.9737 5.04454 25.2443 4.65596H20.4263C20.0257 4.65596 19.7005 4.33071 19.7005 3.93015C19.7005 3.52951 20.0257 3.20434 20.4263 3.20434H26.4548C28.4199 1.22525 31.143 0 34.1526 0C40.1441 0 45 4.85592 45 10.8474C45 16.8388 40.1441 21.6947 34.1526 21.6947C31.143 21.6947 28.4199 20.4694 26.4548 18.4904H21.0406C20.64 18.4904 20.3148 18.1651 20.3148 17.7646C20.3148 17.364 20.64 17.0388 21.0406 17.0388H25.2443C24.9737 16.6502 24.7279 16.243 24.5092 15.8196H20.4263C20.0257 15.8196 19.7005 15.4944 19.7005 15.0938C19.7005 14.6932 20.0257 14.368 20.4263 14.368H23.8892C23.7272 13.8954 23.5969 13.4081 23.5008 12.9086H21.0406C20.64 12.9086 20.3148 12.5833 20.3148 12.1828C20.3148 11.7821 20.64 11.4569 21.0406 11.4569H23.3221C23.3109 11.2552 23.3053 11.0519 23.3053 10.8474C23.3053 10.5666 23.3159 10.2883 23.3369 10.0129ZM27.8966 17.858C29.5578 19.3415 31.7499 20.2431 34.1526 20.2431C36.5554 20.2431 38.7474 19.3415 40.4086 17.858C39.915 14.8476 37.3012 12.5503 34.1526 12.5503C31.0041 12.5503 28.3903 14.8476 27.8966 17.858ZM41.5959 16.5825C42.8201 14.9959 43.5484 13.0067 43.5484 10.8474C43.5484 5.65766 39.3423 1.45161 34.1526 1.45161C28.9629 1.45161 24.7569 5.65766 24.7569 10.8474C24.7569 13.0067 25.4851 14.9959 26.7094 16.5825C27.4259 14.2715 29.1884 12.4203 31.4428 11.5832C30.4737 10.7932 29.8523 9.5909 29.8523 8.24997C29.8523 5.88402 31.7867 3.94966 34.1526 3.94966C36.5185 3.94966 38.4529 5.88402 38.4529 8.24997C38.4529 9.5909 37.8316 10.7932 36.8624 11.5832C39.1169 12.4203 40.8794 14.2715 41.5959 16.5825ZM34.1526 11.0987C35.7199 11.0987 37.0013 9.81726 37.0013 8.24997C37.0013 6.68268 35.7199 5.40127 34.1526 5.40127C32.5854 5.40127 31.3039 6.68268 31.3039 8.24997C31.3039 9.81726 32.5854 11.0987 34.1526 11.0987Z" fill="white"/>
</svg>

<svg xmlns="http://www.w3.org/2000/svg" width="45" height="43" fill="none"><path fill="#fff" fill-rule="evenodd" d="m11.956 37.05.695 1.229.001.002c.52.926.19 2.108-.73 2.628l-2.294 1.3-.003.002c-.926.52-2.108.19-2.628-.731L.25 29.56a1.933 1.933 0 0 1 .726-2.631l2.297-1.3a1.94 1.94 0 0 1 2.63.728v.002l.574 1.013 6.084-3.523c1.784-1.031 3.605-1.71 5.564-1.074 1.934.627 5.092 1.978 8.314 2.56a1 1 0 0 1 .095.024c1.58.512 2.542 2.107 2.11 3.711q-.128.48-.363.868c.428-.1.845-.265 1.253-.503l8.18-4.764c2.91-1.695 4.849-1.527 5.947-.79.934.626 1.365 1.696 1.337 2.746-.028 1.06-.53 2.074-1.361 2.585l-14.843 9.139c-1.54.95-3.228 1.173-4.976.707L13.342 36.25zm-.57 1.943L4.643 27.075v-.002a.48.48 0 0 0-.653-.18l-2.296 1.3a.48.48 0 0 0-.18.65L8.26 40.766c.13.229.423.31.653.18l2.293-1.299a.48.48 0 0 0 .18-.653m-.145-3.206 1.636-.944a.73.73 0 0 1 .55-.073l10.767 2.886c1.348.36 2.65.193 3.838-.54l14.844-9.14c.407-.25.623-.751.665-1.266.065-.792-.31-1.664-1.288-1.869-.88-.184-2.121.102-3.808 1.085l-8.18 4.764c-1.293.753-2.649.961-4.126.726h-.003l-1.015-.166-.03-.005c-1.845-.379-3.555-.936-5.453-1.446a.726.726 0 0 1 .376-1.402c1.86.5 3.535 1.047 5.34 1.42.965.108 1.668-.297 1.89-1.123.225-.838-.298-1.654-1.114-1.94-3.277-.6-6.485-1.96-8.451-2.598-1.553-.504-2.977.133-4.39.95l-6.096 3.53zm-7.535-7.415a.952.952 0 1 1 .276 1.884.952.952 0 1 1-.276-1.884M14.87 20.15l-5.568-.001C4.186 20.149 0 15.963 0 10.846c-.001-5.115 4.185-9.302 9.302-9.302h8.618a.724.724 0 0 1 .726.726v4.357c0 .201-.081.383-.213.514a.72.72 0 0 1-.514.214H9.303a3.5 3.5 0 0 0-3.493 3.492 3.5 3.5 0 0 0 3.493 3.493h8.616c.401 0 .726.325.726.726l.001 4.358a.726.726 0 0 1-.726.726h-3.049m-.7-17.154H9.3c-4.318 0-7.85 3.533-7.85 7.85s3.534 7.851 7.852 7.851l4.867.001v-2.906H9.302c-2.72 0-4.946-2.226-4.944-4.945a4.96 4.96 0 0 1 4.944-4.944h4.868zm3.023 0h-1.572v2.906h1.572zm0 15.703v-2.907H15.62v2.906zm6.143-8.686-2.915-.016a.726.726 0 0 1 .008-1.451l3.116.016q.136-.632.343-1.235h-2.848a.726.726 0 0 1 0-1.452h3.468q.33-.635.735-1.219h-4.818a.726.726 0 0 1 0-1.452h6.029A10.81 10.81 0 0 1 34.153 0C40.144 0 45 4.856 45 10.847c0 5.992-4.856 10.848-10.847 10.848-3.01 0-5.733-1.226-7.698-3.205H21.04a.726.726 0 0 1 0-1.451h4.203q-.406-.584-.735-1.22h-4.083a.726.726 0 0 1 0-1.451h3.463q-.244-.71-.388-1.46h-2.46a.726.726 0 0 1 0-1.451h2.281a11 11 0 0 1 .015-1.444m4.56 7.845a9.36 9.36 0 0 0 6.256 2.385 9.36 9.36 0 0 0 6.256-2.385 6.34 6.34 0 0 0-6.256-5.308 6.34 6.34 0 0 0-6.256 5.308m13.699-1.276a9.36 9.36 0 0 0 1.952-5.735 9.395 9.395 0 0 0-9.395-9.395 9.395 9.395 0 0 0-9.396 9.395c0 2.16.728 4.149 1.952 5.736a7.82 7.82 0 0 1 4.734-5 4.3 4.3 0 0 1-1.59-3.333c0-2.366 1.934-4.3 4.3-4.3s4.3 1.934 4.3 4.3c0 1.34-.621 2.543-1.59 3.333a7.82 7.82 0 0 1 4.733 5M34.153 11.1A2.856 2.856 0 0 0 37 8.25a2.856 2.856 0 0 0-2.848-2.849 2.856 2.856 0 0 0-2.85 2.849 2.857 2.857 0 0 0 2.85 2.849" clip-rule="evenodd"/></svg>
